Newaita-dark/apps/16/com.github.bartzaalberg.bookmark-manager.svg

<svg height="16" viewBox="0 0 16 16" width="16" xmlns="http://www.w3.org/2000/svg" xmlns:xlink="http://www.w3.org/1999/xlink"><linearGradient id="a" gradientUnits="userSpaceOnUse" x1="7.93826" x2="7.93826" y1="14.0169685" y2="14.67849050002"><stop offset="0" stop-opacity=".27451"/><stop offset="1" stop-opacity="0"/></linearGradient><linearGradient id="b"><stop offset="0" stop-opacity=".313726"/><stop offset=".222222" stop-opacity=".27451"/><stop offset="1" stop-opacity="0"/></linearGradient><radialGradient id="c" cx="450.908936" cy="189.579361" gradientTransform="matrix(.00000009 -.0390662 -.0703192 -.00000005 25.073043 31.797666)" gradientUnits="userSpaceOnUse" r="21.166656" xlink:href="#b"/><radialGradient id="d" cx="450.908936" cy="189.579361" gradientTransform="matrix(-.00000009 .0390662 .0703192 .00000005 -9.196524 -3.76374)" gradientUnits="userSpaceOnUse" r="21.166656" xlink:href="#b"/><radialGradient id="e" cx="450.908936" cy="189.579361" gradientTransform="matrix(-.00000009 -.0390662 .0703192 -.00000005 -9.196524 31.797666)" gradientUnits="userSpaceOnUse" r="21.166656" xlink:href="#b"/><radialGradient id="f" cx="450.908936" cy="189.579361" gradientTransform="matrix(.00000009 .0390662 -.0703192 .00000005 25.073042 -3.76374)" gradientUnits="userSpaceOnUse" r="21.166656" xlink:href="#b"/><linearGradient id="g"><stop offset="0" stop-color="#424242"/><stop offset="1" stop-color="#616161"/></linearGradient><linearGradient id="h" gradientTransform="matrix(.0376748 0 0 .108706 -2.927007 16.820674)" gradientUnits="userSpaceOnUse" x1="306.916656" x2="305.954559" xlink:href="#g" y1="-25.791676" y2="-141.414581"/><linearGradient id="i" gradientTransform="matrix(4.556143 0 0 13.146184 -353.972656 2034.180176)" gradientUnits="userSpaceOnUse" x1="165.484848" x2="165.484848" xlink:href="#g" y1="-25.791672" y2="-141.414581"/><linearGradient id="j"><stop offset="0" stop-color="#42a5f5"/><stop offset="1" stop-color="#64b5f6"/></linearGradient><linearGradient id="k" gradientUnits="userSpaceOnUse" x1="275.166301" x2="275.166301" xlink:href="#j" y1="233.49969318561" y2="-168.66647475188"/><linearGradient id="l" gradientUnits="userSpaceOnUse" x1="370.416376" x2="370.416376" xlink:href="#j" y1="80.0412949526" y2="-168.66671710991"/><linearGradient id="m" gradientUnits="userSpaceOnUse" x1="7.60750125002" x2="7.60750125002" y1="14.0169675" y2="1.44805300003"><stop offset="0" stop-color="#bdbdbd"/><stop offset="1" stop-color="#e0e0e0"/></linearGradient><linearGradient id="n" gradientUnits="userSpaceOnUse" x1="3.30760850003" x2="3.30760850003" xlink:href="#g" y1="5.25181134375" y2="4.59028956251"/><linearGradient id="o" gradientUnits="userSpaceOnUse" x1="3.30760850003" x2="3.30760850003" xlink:href="#g" y1="10.70936334375" y2="10.04784156251"/><path d="m3.96875 14.015625h7.9375v.664063h-7.9375zm0 0" fill="url(#a)"/><path d="m11.90625 14.015625h1.324219v-.660156h-1.324219zm0 0" fill="url(#c)"/><path d="m3.96875 14.015625h-1.324219v.664063h1.324219zm0 0" fill="url(#d)"/><path d="m3.96875 14.015625h-1.324219v-.660156h1.324219zm0 0" fill="url(#e)"/><path d="m11.90625 14.015625h1.324219v.664063h-1.324219zm0 0" fill="url(#f)"/><path d="m3.308594 1.449219h9.261718c.363282 0 .660157.296875.660157.660156v11.246094c0 .367187-.296875.660156-.660157.660156h-9.261718c-.367188 0-.664063-.292969-.664063-.660156v-11.246094c0-.363281.296875-.660156.664063-.660156zm0 0" fill="url(#h)"/><path d="m400.119292 175.258863c-44.405211 0-80.307296 35.42969-80.307296 79.8349v1360.027676c0 44.405211 35.902085 79.8349 80.307296 79.8349h119.988548v-1519.697476zm0 0" fill="url(#i)" stroke="#212121" stroke-linecap="round" stroke-width="11.338583" transform="scale(.00826902)"/><path d="m3.308594 14.015625c-.367188 0-.664063-.292969-.664063-.660156v-.082031c0 .367187.296875.660156.664063.660156h9.261718c.363282 0 .660157-.292969.660157-.660156v.082031c0 .367187-.296875.660156-.660157.660156zm0 0" fill-opacity=".196078"/><path d="m3.308594 1.449219c-.367188 0-.664063.292969-.664063.660156v.082031c0-.367187.296875-.660156.664063-.660156h9.261718c.363282 0 .660157.292969.660157.660156v-.082031c0-.367187-.296875-.660156-.660157-.660156zm0 0" fill="#e6e6e6" fill-opacity=".392157"/><path d="m3.308594 1.402344c-.394532 0-.710938.316406-.710938.707031v11.246094c0 .390625.316406.707031.710938.707031h9.261718c.390626 0 .707032-.316406.707032-.707031v-11.246094c0-.390625-.316406-.707031-.707032-.707031zm0 .09375h9.261718c.339844 0 .613282.273437.613282.613281v11.246094c0 .339843-.273438.613281-.613282.613281h-9.261718c-.34375 0-.617188-.273438-.617188-.613281v-11.246094c0-.339844.273438-.613281.617188-.613281zm0 0" fill="#212121"/><path d="m148.110856-147.506445v359.840637h243.476749c5.874439 0 10.623986-4.749547 10.623986-10.623986v-338.592666c0-5.874439-4.749547-10.623985-10.623986-10.623985zm0 0" style="fill:none;stroke-width:8;stroke-linecap:round;stroke-linejoin:round;stroke-dasharray:16.000002 16.000002;stroke-dashoffset:7.200001;stroke:url(#k)" transform="matrix(.031253 0 0 .031253 0 6.719392)"/><path d="m349.216651-168.629428v253.975746c15.873485-42.370953 26.49747-42.370953 42.370954 0v-253.975746zm0 0" fill="url(#l)" stroke="#212121" stroke-linecap="round" stroke-linejoin="round" stroke-width="3" transform="matrix(.031253 0 0 .031253 0 6.719392)"/><path d="m6.148438 3.351562c-.128907-.128906-.339844-.128906-.46875 0-.128907.128907-.128907.339844 0 .46875l.933593.933594-.933593.9375c-.128907.128906-.128907.339844 0 .46875.128906.128906.339843.128906.46875 0l1.167968-1.171875c.007813-.007812.015625-.015625.023438-.023437.105468-.128906.097656-.320313-.023438-.441406zm0 0" fill="url(#m)"/><path d="m5.914062 3.253906c-.085937 0-.167968.035156-.234374.097656-.085938.085938-.113282.207032-.085938.316407.011719-.054688.042969-.109375.085938-.152344.128906-.128906.339843-.128906.46875 0l1.167968 1.167969c.042969.046875.074219.097656.085938.152344.027344-.109376 0-.226563-.085938-.3125l-1.167968-1.171876c-.066407-.0625-.148438-.097656-.234376-.097656zm.621094 1.582032-.855468.855468c-.085938.085938-.113282.207032-.085938.316406.011719-.058593.042969-.109374.085938-.152343l.933593-.9375zm0 0" fill="#fff"/><path d="m5.605469 3.710938c-.046875.117187-.023438.261718.074219.355468l.8125.8125.121093-.125-.933593-.933594c-.03125-.03125-.058594-.070312-.074219-.109374zm1.785156 1.167968c-.011719.03125-.03125.058594-.050781.085938-.007813.007812-.015625.015625-.023438.023437l-1.167968 1.171875c-.128907.128906-.339844.128906-.46875 0-.03125-.035156-.058594-.070312-.074219-.109375-.046875.117188-.023438.257813.074219.355469.128906.128906.339843.128906.46875 0l1.167968-1.167969c.007813-.007812.015625-.015625.023438-.027343.078125-.09375.09375-.222657.050781-.332032zm0 0" fill-opacity=".235294"/><path d="m196.731213-107.760241c-4.124606-4.124606-10.873961-4.124606-14.998568 0-4.124606 4.124606-4.124606 10.873962 0 14.998568l29.872148 29.872147-29.872148 29.997136c-4.124606 4.124606-4.124606 10.873961 0 14.998567 4.124607 4.124606 10.873962 4.124606 14.998568 0l37.371431-37.496419c.249976-.249976.499953-.499952.749929-.749928 3.374677-4.124606 3.124701-10.249022-.749929-14.123652zm0 0" fill="none" stroke="#212121" stroke-linecap="round" stroke-width="3" transform="matrix(.031253 0 0 .031253 0 6.719392)"/><path d="m3.308594 1.402344c-.394532 0-.710938.316406-.710938.707031v11.246094c0 .390625.316406.707031.710938.707031h9.261718c.390626 0 .707032-.316406.707032-.707031v-11.246094c0-.390625-.316406-.707031-.707032-.707031zm0 .09375h9.261718c.339844 0 .613282.273437.613282.613281v11.246094c0 .339843-.273438.613281-.613282.613281h-9.261718c-.34375 0-.617188-.273438-.617188-.613281v-11.246094c0-.339844.273438-.613281.617188-.613281zm0 0" fill="#212121"/><path d="m2.644531 4.589844h1.65625v.660156h-1.65625zm0 0" fill="url(#n)"/><path d="m2.644531 5.25v.25h1.65625v-.25zm0 0" fill-opacity=".235294"/><path d="m2.644531 4.589844v.164062h1.65625v-.164062zm0 0" fill="#fff" fill-opacity=".392157"/><path d="m84.61694-20.514257h52.994939v21.122983h-52.994939zm0 0" fill="none" stroke="#212121" stroke-linecap="round" stroke-linejoin="round" stroke-width="3" transform="matrix(.031253 0 0 .031253 -.000001 5.230976)"/><path d="m2.644531 10.046875h1.65625v.664063h-1.65625zm0 0" fill="url(#o)"/><path d="m2.644531 10.710938v.246093h1.65625v-.246093zm0 0" fill-opacity=".235294"/><path d="m2.644531 10.046875v.167969h1.65625v-.167969zm0 0" fill="#fff" fill-opacity=".392157"/><path d="m84.61694-20.530951h52.994939v21.247971h-52.994939zm0 0" fill="none" stroke="#212121" stroke-linecap="round" stroke-linejoin="round" stroke-width="3" transform="matrix(.031253 0 0 .031253 -.000001 10.688528)"/></svg>

<?xml version="1.0" encoding="UTF-8"?>
<svg xmlns="http://www.w3.org/2000/svg" xmlns:xlink="http://www.w3.org/1999/xlink" width="16px" height="16px" viewBox="0 0 16 16" version="1.1">
<defs>
<linearGradient id="linear0" gradientUnits="userSpaceOnUse" x1="254" y1="233.5" x2="254" y2="254.666672" gradientTransform="matrix(0.031253,0,0,0.031253,-0.00000190753,6.719393)">
<stop offset="0" style="stop-color:rgb(0%,0%,0%);stop-opacity:0.27451;"/>
<stop offset="1" style="stop-color:rgb(0%,0%,0%);stop-opacity:0;"/>
</linearGradient>
<radialGradient id="radial0" gradientUnits="userSpaceOnUse" cx="450.908936" cy="189.579361" fx="450.908936" fy="189.579361" r="21.166656" gradientTransform="matrix(0.0000000870852,-0.0390662,-0.0703192,-0.0000000507693,25.073043,31.797666)">
<stop offset="0" style="stop-color:rgb(0%,0%,0%);stop-opacity:0.313726;"/>
<stop offset="0.222222" style="stop-color:rgb(0%,0%,0%);stop-opacity:0.27451;"/>
<stop offset="1" style="stop-color:rgb(0%,0%,0%);stop-opacity:0;"/>
</radialGradient>
<radialGradient id="radial1" gradientUnits="userSpaceOnUse" cx="450.908936" cy="189.579361" fx="450.908936" fy="189.579361" r="21.166656" gradientTransform="matrix(-0.0000000870852,0.0390662,0.0703192,0.0000000507693,-9.196524,-3.76374)">
<stop offset="0" style="stop-color:rgb(0%,0%,0%);stop-opacity:0.313726;"/>
<stop offset="0.222222" style="stop-color:rgb(0%,0%,0%);stop-opacity:0.27451;"/>
<stop offset="1" style="stop-color:rgb(0%,0%,0%);stop-opacity:0;"/>
</radialGradient>
<radialGradient id="radial2" gradientUnits="userSpaceOnUse" cx="450.908936" cy="189.579361" fx="450.908936" fy="189.579361" r="21.166656" gradientTransform="matrix(-0.0000000870852,-0.0390662,0.0703192,-0.0000000507693,-9.196524,31.797666)">
<stop offset="0" style="stop-color:rgb(0%,0%,0%);stop-opacity:0.313726;"/>
<stop offset="0.222222" style="stop-color:rgb(0%,0%,0%);stop-opacity:0.27451;"/>
<stop offset="1" style="stop-color:rgb(0%,0%,0%);stop-opacity:0;"/>
</radialGradient>
<radialGradient id="radial3" gradientUnits="userSpaceOnUse" cx="450.908936" cy="189.579361" fx="450.908936" fy="189.579361" r="21.166656" gradientTransform="matrix(0.0000000870852,0.0390662,-0.0703192,0.0000000507693,25.073042,-3.76374)">
<stop offset="0" style="stop-color:rgb(0%,0%,0%);stop-opacity:0.313726;"/>
<stop offset="0.222222" style="stop-color:rgb(0%,0%,0%);stop-opacity:0.27451;"/>
<stop offset="1" style="stop-color:rgb(0%,0%,0%);stop-opacity:0;"/>
</radialGradient>
<linearGradient id="linear1" gradientUnits="userSpaceOnUse" x1="306.916656" y1="-25.791676" x2="305.954559" y2="-141.414581" gradientTransform="matrix(0.0376748,0,0,0.108706,-2.927007,16.820674)">
<stop offset="0" style="stop-color:rgb(25.882354%,25.882354%,25.882354%);stop-opacity:1;"/>
<stop offset="1" style="stop-color:rgb(38.039216%,38.039216%,38.039216%);stop-opacity:1;"/>
</linearGradient>
<linearGradient id="linear2" gradientUnits="userSpaceOnUse" x1="165.484848" y1="-25.791672" x2="165.484848" y2="-141.414581" gradientTransform="matrix(4.556143,0,0,13.146184,-353.972656,2034.180176)">
<stop offset="0" style="stop-color:rgb(25.882354%,25.882354%,25.882354%);stop-opacity:1;"/>
<stop offset="1" style="stop-color:rgb(38.039216%,38.039216%,38.039216%);stop-opacity:1;"/>
</linearGradient>
<linearGradient id="linear3" gradientUnits="userSpaceOnUse" x1="1040" y1="1695.118164" x2="1040" y2="175.118134" gradientTransform="matrix(0.264583,0,0,0.264583,-0.0000193333,-214.999756)">
<stop offset="0" style="stop-color:rgb(25.882354%,64.705884%,96.078432%);stop-opacity:1;"/>
<stop offset="1" style="stop-color:rgb(39.215687%,70.980394%,96.470588%);stop-opacity:1;"/>
</linearGradient>
<linearGradient id="linear4" gradientUnits="userSpaceOnUse" x1="840" y1="1115.117188" x2="840" y2="175.117218" gradientTransform="matrix(0.264583,0,0,0.264583,148.166656,-214.999756)">
<stop offset="0" style="stop-color:rgb(25.882354%,64.705884%,96.078432%);stop-opacity:1;"/>
<stop offset="1" style="stop-color:rgb(39.215687%,70.980394%,96.470588%);stop-opacity:1;"/>
</linearGradient>
<linearGradient id="linear5" gradientUnits="userSpaceOnUse" x1="243.416672" y1="233.5" x2="243.416672" y2="-168.666656" gradientTransform="matrix(0.031253,0,0,0.031253,0,6.719392)">
<stop offset="0" style="stop-color:rgb(74.117649%,74.117649%,74.117649%);stop-opacity:1;"/>
<stop offset="1" style="stop-color:rgb(87.843138%,87.843138%,87.843138%);stop-opacity:1;"/>
</linearGradient>
<linearGradient id="linear6" gradientUnits="userSpaceOnUse" x1="105.833344" y1="0.666667" x2="105.833344" y2="-20.499998" gradientTransform="matrix(0.031253,0,0,0.031253,-0.000000635477,5.230976)">
<stop offset="0" style="stop-color:rgb(25.882354%,25.882354%,25.882354%);stop-opacity:1;"/>
<stop offset="1" style="stop-color:rgb(38.039216%,38.039216%,38.039216%);stop-opacity:1;"/>
</linearGradient>
<linearGradient id="linear7" gradientUnits="userSpaceOnUse" x1="105.833344" y1="0.666667" x2="105.833344" y2="-20.499998" gradientTransform="matrix(0.031253,0,0,0.031253,-0.000000635477,10.688528)">
<stop offset="0" style="stop-color:rgb(25.882354%,25.882354%,25.882354%);stop-opacity:1;"/>
<stop offset="1" style="stop-color:rgb(38.039216%,38.039216%,38.039216%);stop-opacity:1;"/>
</linearGradient>
</defs>
<g id="surface1">
<path style=" stroke:none;fill-rule:nonzero;fill:url(#linear0);" d="M 3.96875 14.015625 L 11.90625 14.015625 L 11.90625 14.679688 L 3.96875 14.679688 Z M 3.96875 14.015625 "/>
<path style=" stroke:none;fill-rule:nonzero;fill:url(#radial0);" d="M 11.90625 14.015625 L 13.230469 14.015625 L 13.230469 13.355469 L 11.90625 13.355469 Z M 11.90625 14.015625 "/>
<path style=" stroke:none;fill-rule:nonzero;fill:url(#radial1);" d="M 3.96875 14.015625 L 2.644531 14.015625 L 2.644531 14.679688 L 3.96875 14.679688 Z M 3.96875 14.015625 "/>
<path style=" stroke:none;fill-rule:nonzero;fill:url(#radial2);" d="M 3.96875 14.015625 L 2.644531 14.015625 L 2.644531 13.355469 L 3.96875 13.355469 Z M 3.96875 14.015625 "/>
<path style=" stroke:none;fill-rule:nonzero;fill:url(#radial3);" d="M 11.90625 14.015625 L 13.230469 14.015625 L 13.230469 14.679688 L 11.90625 14.679688 Z M 11.90625 14.015625 "/>
<path style=" stroke:none;fill-rule:nonzero;fill:url(#linear1);" d="M 3.308594 1.449219 L 12.570312 1.449219 C 12.933594 1.449219 13.230469 1.746094 13.230469 2.109375 L 13.230469 13.355469 C 13.230469 13.722656 12.933594 14.015625 12.570312 14.015625 L 3.308594 14.015625 C 2.941406 14.015625 2.644531 13.722656 2.644531 13.355469 L 2.644531 2.109375 C 2.644531 1.746094 2.941406 1.449219 3.308594 1.449219 Z M 3.308594 1.449219 "/>
<path style="fill-rule:nonzero;fill:url(#linear2);stroke-width:11.338583;stroke-linecap:round;stroke-linejoin:miter;stroke:rgb(12.941177%,12.941177%,12.941177%);stroke-opacity:1;stroke-miterlimit:4;" d="M 400.119292 175.258863 C 355.714081 175.258863 319.811996 210.688553 319.811996 255.093763 L 319.811996 1615.121439 C 319.811996 1659.52665 355.714081 1694.956339 400.119292 1694.956339 L 520.10784 1694.956339 L 520.10784 175.258863 Z M 400.119292 175.258863 " transform="matrix(0.00826902,0,0,0.00826902,0,0)"/>
<path style=" stroke:none;fill-rule:nonzero;fill:rgb(0%,0%,0%);fill-opacity:0.196078;" d="M 3.308594 14.015625 C 2.941406 14.015625 2.644531 13.722656 2.644531 13.355469 L 2.644531 13.273438 C 2.644531 13.640625 2.941406 13.933594 3.308594 13.933594 L 12.570312 13.933594 C 12.933594 13.933594 13.230469 13.640625 13.230469 13.273438 L 13.230469 13.355469 C 13.230469 13.722656 12.933594 14.015625 12.570312 14.015625 Z M 3.308594 14.015625 "/>
<path style=" stroke:none;fill-rule:nonzero;fill:rgb(90.196079%,90.196079%,90.196079%);fill-opacity:0.392157;" d="M 3.308594 1.449219 C 2.941406 1.449219 2.644531 1.742188 2.644531 2.109375 L 2.644531 2.191406 C 2.644531 1.824219 2.941406 1.53125 3.308594 1.53125 L 12.570312 1.53125 C 12.933594 1.53125 13.230469 1.824219 13.230469 2.191406 L 13.230469 2.109375 C 13.230469 1.742188 12.933594 1.449219 12.570312 1.449219 Z M 3.308594 1.449219 "/>
<path style=" stroke:none;fill-rule:nonzero;fill:rgb(12.941177%,12.941177%,12.941177%);fill-opacity:1;" d="M 3.308594 1.402344 C 2.914062 1.402344 2.597656 1.71875 2.597656 2.109375 L 2.597656 13.355469 C 2.597656 13.746094 2.914062 14.0625 3.308594 14.0625 L 12.570312 14.0625 C 12.960938 14.0625 13.277344 13.746094 13.277344 13.355469 L 13.277344 2.109375 C 13.277344 1.71875 12.960938 1.402344 12.570312 1.402344 Z M 3.308594 1.496094 L 12.570312 1.496094 C 12.910156 1.496094 13.183594 1.769531 13.183594 2.109375 L 13.183594 13.355469 C 13.183594 13.695312 12.910156 13.96875 12.570312 13.96875 L 3.308594 13.96875 C 2.964844 13.96875 2.691406 13.695312 2.691406 13.355469 L 2.691406 2.109375 C 2.691406 1.769531 2.964844 1.496094 3.308594 1.496094 Z M 3.308594 1.496094 "/>
<path style="fill:none;stroke-width:8;stroke-linecap:round;stroke-linejoin:round;stroke:url(#linear3);stroke-dasharray:16.000002,16.000002;stroke-dashoffset:7.200001;stroke-miterlimit:4;" d="M 148.110856 -147.506445 L 148.110856 212.334192 L 391.587605 212.334192 C 397.462044 212.334192 402.211591 207.584645 402.211591 201.710206 L 402.211591 -136.88246 C 402.211591 -142.756899 397.462044 -147.506445 391.587605 -147.506445 Z M 148.110856 -147.506445 " transform="matrix(0.031253,0,0,0.031253,0,6.719392)"/>
<path style="fill-rule:nonzero;fill:url(#linear4);stroke-width:3;stroke-linecap:round;stroke-linejoin:round;stroke:rgb(12.941177%,12.941177%,12.941177%);stroke-opacity:1;stroke-miterlimit:4;" d="M 349.216651 -168.629428 L 349.216651 85.346318 C 365.090136 42.975365 375.714121 42.975365 391.587605 85.346318 L 391.587605 -168.629428 Z M 349.216651 -168.629428 " transform="matrix(0.031253,0,0,0.031253,0,6.719392)"/>
<path style=" stroke:none;fill-rule:nonzero;fill:url(#linear5);" d="M 6.148438 3.351562 C 6.019531 3.222656 5.808594 3.222656 5.679688 3.351562 C 5.550781 3.480469 5.550781 3.691406 5.679688 3.820312 L 6.613281 4.753906 L 5.679688 5.691406 C 5.550781 5.820312 5.550781 6.03125 5.679688 6.160156 C 5.808594 6.289062 6.019531 6.289062 6.148438 6.160156 L 7.316406 4.988281 C 7.324219 4.980469 7.332031 4.972656 7.339844 4.964844 C 7.445312 4.835938 7.4375 4.644531 7.316406 4.523438 Z M 6.148438 3.351562 "/>
<path style=" stroke:none;fill-rule:nonzero;fill:rgb(100%,100%,100%);fill-opacity:1;" d="M 5.914062 3.253906 C 5.828125 3.253906 5.746094 3.289062 5.679688 3.351562 C 5.59375 3.4375 5.566406 3.558594 5.59375 3.667969 C 5.605469 3.613281 5.636719 3.558594 5.679688 3.515625 C 5.808594 3.386719 6.019531 3.386719 6.148438 3.515625 L 7.316406 4.683594 C 7.359375 4.730469 7.390625 4.78125 7.402344 4.835938 C 7.429688 4.726562 7.402344 4.609375 7.316406 4.523438 L 6.148438 3.351562 C 6.082031 3.289062 6 3.253906 5.914062 3.253906 Z M 6.535156 4.835938 L 5.679688 5.691406 C 5.59375 5.777344 5.566406 5.898438 5.59375 6.007812 C 5.605469 5.949219 5.636719 5.898438 5.679688 5.855469 L 6.613281 4.917969 Z M 6.535156 4.835938 "/>
<path style=" stroke:none;fill-rule:nonzero;fill:rgb(0%,0%,0%);fill-opacity:0.235294;" d="M 5.605469 3.710938 C 5.558594 3.828125 5.582031 3.972656 5.679688 4.066406 L 6.492188 4.878906 L 6.613281 4.753906 L 5.679688 3.820312 C 5.648438 3.789062 5.621094 3.75 5.605469 3.710938 Z M 7.390625 4.878906 C 7.378906 4.910156 7.359375 4.9375 7.339844 4.964844 C 7.332031 4.972656 7.324219 4.980469 7.316406 4.988281 L 6.148438 6.160156 C 6.019531 6.289062 5.808594 6.289062 5.679688 6.160156 C 5.648438 6.125 5.621094 6.089844 5.605469 6.050781 C 5.558594 6.167969 5.582031 6.308594 5.679688 6.40625 C 5.808594 6.535156 6.019531 6.535156 6.148438 6.40625 L 7.316406 5.238281 C 7.324219 5.230469 7.332031 5.222656 7.339844 5.210938 C 7.417969 5.117188 7.433594 4.988281 7.390625 4.878906 Z M 7.390625 4.878906 "/>
<path style="fill:none;stroke-width:3;stroke-linecap:round;stroke-linejoin:miter;stroke:rgb(12.941177%,12.941177%,12.941177%);stroke-opacity:1;stroke-miterlimit:4;" d="M 196.731213 -107.760241 C 192.606607 -111.884847 185.857252 -111.884847 181.732645 -107.760241 C 177.608039 -103.635635 177.608039 -96.886279 181.732645 -92.761673 L 211.604793 -62.889526 L 181.732645 -32.89239 C 177.608039 -28.767784 177.608039 -22.018429 181.732645 -17.893823 C 185.857252 -13.769217 192.606607 -13.769217 196.731213 -17.893823 L 234.102644 -55.390242 C 234.35262 -55.640218 234.602597 -55.890194 234.852573 -56.14017 C 238.22725 -60.264776 237.977274 -66.389192 234.102644 -70.263822 Z M 196.731213 -107.760241 " transform="matrix(0.031253,0,0,0.031253,0,6.719392)"/>
<path style=" stroke:none;fill-rule:nonzero;fill:rgb(12.941177%,12.941177%,12.941177%);fill-opacity:1;" d="M 3.308594 1.402344 C 2.914062 1.402344 2.597656 1.71875 2.597656 2.109375 L 2.597656 13.355469 C 2.597656 13.746094 2.914062 14.0625 3.308594 14.0625 L 12.570312 14.0625 C 12.960938 14.0625 13.277344 13.746094 13.277344 13.355469 L 13.277344 2.109375 C 13.277344 1.71875 12.960938 1.402344 12.570312 1.402344 Z M 3.308594 1.496094 L 12.570312 1.496094 C 12.910156 1.496094 13.183594 1.769531 13.183594 2.109375 L 13.183594 13.355469 C 13.183594 13.695312 12.910156 13.96875 12.570312 13.96875 L 3.308594 13.96875 C 2.964844 13.96875 2.691406 13.695312 2.691406 13.355469 L 2.691406 2.109375 C 2.691406 1.769531 2.964844 1.496094 3.308594 1.496094 Z M 3.308594 1.496094 "/>
<path style=" stroke:none;fill-rule:nonzero;fill:url(#linear6);" d="M 2.644531 4.589844 L 4.300781 4.589844 L 4.300781 5.25 L 2.644531 5.25 Z M 2.644531 4.589844 "/>
<path style=" stroke:none;fill-rule:nonzero;fill:rgb(0%,0%,0%);fill-opacity:0.235294;" d="M 2.644531 5.25 L 2.644531 5.5 L 4.300781 5.5 L 4.300781 5.25 Z M 2.644531 5.25 "/>
<path style=" stroke:none;fill-rule:nonzero;fill:rgb(100%,100%,100%);fill-opacity:0.392157;" d="M 2.644531 4.589844 L 2.644531 4.753906 L 4.300781 4.753906 L 4.300781 4.589844 Z M 2.644531 4.589844 "/>
<path style="fill:none;stroke-width:3;stroke-linecap:round;stroke-linejoin:round;stroke:rgb(12.941177%,12.941177%,12.941177%);stroke-opacity:1;stroke-miterlimit:4;" d="M 84.61694 -20.514257 L 137.611879 -20.514257 L 137.611879 0.608726 L 84.61694 0.608726 Z M 84.61694 -20.514257 " transform="matrix(0.031253,0,0,0.031253,-0.000000635477,5.230976)"/>
<path style=" stroke:none;fill-rule:nonzero;fill:url(#linear7);" d="M 2.644531 10.046875 L 4.300781 10.046875 L 4.300781 10.710938 L 2.644531 10.710938 Z M 2.644531 10.046875 "/>
<path style=" stroke:none;fill-rule:nonzero;fill:rgb(0%,0%,0%);fill-opacity:0.235294;" d="M 2.644531 10.710938 L 2.644531 10.957031 L 4.300781 10.957031 L 4.300781 10.710938 Z M 2.644531 10.710938 "/>
<path style=" stroke:none;fill-rule:nonzero;fill:rgb(100%,100%,100%);fill-opacity:0.392157;" d="M 2.644531 10.046875 L 2.644531 10.214844 L 4.300781 10.214844 L 4.300781 10.046875 Z M 2.644531 10.046875 "/>
<path style="fill:none;stroke-width:3;stroke-linecap:round;stroke-linejoin:round;stroke:rgb(12.941177%,12.941177%,12.941177%);stroke-opacity:1;stroke-miterlimit:4;" d="M 84.61694 -20.530951 L 137.611879 -20.530951 L 137.611879 0.71702 L 84.61694 0.71702 Z M 84.61694 -20.530951 " transform="matrix(0.031253,0,0,0.031253,-0.000000635477,10.688528)"/>
</g>
</svg>
